learning-site/svg (21).svg

<svg xmlns="http://www.w3.org/2000/svg" xmlns:xlink="http://www.w3.org/1999/xlink" viewBox="0 0 100 100" version="1.1"><!-- Generator: Sketch 51.3 (57544) - http://www.bohemiancoding.com/sketch --><title>design-for-security</title><desc>Created with Sketch.</desc><defs><filter x="-1.9%" y="-1.3%" width="103.8%" height="105.3%" filterUnits="objectBoundingBox" id="filter-1"><feOffset dx="0" dy="2" in="SourceAlpha" result="shadowOffsetOuter1"></feOffset><feColorMatrix values="0 0 0 0 0   0 0 0 0 0   0 0 0 0 0  0 0 0 0.101760643 0" type="matrix" in="shadowOffsetOuter1" result="shadowMatrixOuter1"></feColorMatrix><feMerge><feMergeNode in="shadowMatrixOuter1"></feMergeNode><feMergeNode in="SourceGraphic"></feMergeNode></feMerge></filter></defs><g id="Badges-FINAL" stroke="none" stroke-width="1" fill="none" fill-rule="evenodd"><g id="Architect-Great-Solutions-with-Azure" transform="translate(-577.000000, -533.000000)"><g id="design-for-security" transform="translate(577.000000, 533.000000)"><rect id="BG" fill="#F2C811" x="2" y="2" width="96" height="96" rx="48"></rect><path d="M22.8444569,58.4147144 L13.9406907,58.4147144 C10.9404034,58.4147144 8.4995002,55.9738112 8.4995002,52.973524 C8.4995002,49.9732367 10.9404034,47.5323335 13.9406907,47.5323335 C14.2160347,47.5323335 14.492828,47.5572096 14.7899121,47.6096231 C15.8420157,44.0453614 19.0876957,41.5964894 22.8444569,41.5964894 C27.4813504,41.5964894 31.2535694,45.3687084 31.2535694,50.0056019 C31.2535694,54.6424954 27.4813504,58.4147144 22.8444569,58.4147144 Z" id="Cloud" fill="#FFFFFF" fill-rule="nonzero"></path><g id="Lock" filter="url(#filter-1)" transform="translate(24.229752, 11.516003)"><path d="M25.770248,0 C15.4363786,0 7.02824946,8.4081291 7.02824946,18.7419985 L7.02824946,32.7984975 C7.02824946,34.0916954 8.60257733,35.1412473 10.5423742,35.1412473 C12.482171,35.1412473 14.0564989,34.0916954 14.0564989,32.7984975 L14.0564989,18.7419985 C14.0564989,12.2830373 19.3112868,7.02824946 25.770248,7.02824946 C32.2292093,7.02824946 37.4839971,12.2830373 37.4839971,18.7419985 L37.4839971,32.7984975 C37.4839971,34.0916954 39.058325,35.1412473 40.9981218,35.1412473 C42.9379187,35.1412473 44.5122466,34.0916954 44.5122466,32.7984975 L44.5122466,18.7419985 C44.5122466,8.4081291 36.1041175,0 25.770248,0" id="Fill-84" fill="#F3F3F3"></path><path d="M25.770248,0 C25.3743233,0 24.9877696,0.0339698724 24.5988731,0.0597401204 C34.3857105,0.668855073 42.1694967,8.80405382 42.1694967,18.7419985 L42.1694967,24.5438185 C42.1694967,25.9049561 40.6865361,26.7530316 39.5221894,26.0490352 C38.861534,25.6495964 38.1821365,25.2782705 37.4839971,24.9397432 L37.4839971,32.7984975 C37.4839971,34.0916954 39.058325,35.1412473 40.9981218,35.1412473 C42.9379187,35.1412473 44.5122466,34.0916954 44.5122466,32.7984975 L44.5122466,18.7419985 C44.5122466,8.4081291 36.1041175,0 25.770248,0" id="Fill-85" fill="#C5CCCD"></path><path d="M21.3529932,7.21801219 C15.694081,8.25467899 11.7137491,13.4063858 11.7137491,19.1601794 L11.7137491,24.3599126 C11.7137491,25.4820898 11.1866304,26.5492123 10.2694438,27.1934685 C9.11915367,28.0017172 8.0344605,28.8943049 7.02824946,29.8700602 L7.02824946,32.7984975 C7.02824946,34.0916954 8.60257733,35.1412473 10.5423742,35.1412473 C12.482171,35.1412473 14.0564989,34.0916954 14.0564989,32.7984975 L14.0564989,18.7419985 C14.0564989,12.6777906 18.6869439,7.67836253 24.5988731,7.08798958 C23.5575208,6.98256583 22.48337,7.01067883 21.3529932,7.21801219" id="Fill-87" fill="#C5CCCD"></path><path d="M25.770248,25.770248 C12.8523255,25.770248 2.34274982,36.2798237 2.34274982,49.1977462 C2.34274982,62.1156687 12.8523255,72.6252444 25.770248,72.6252444 C38.6881705,72.6252444 49.1977462,62.1156687 49.1977462,49.1977462 C49.1977462,36.2798237 38.6881705,25.770248 25.770248,25.770248" id="Fill-88" fill="#30404D"></path><path d="M25.770248,25.770248 L25.770248,31.6271226 C25.1224777,31.6271226 24.5988731,31.103518 24.5988731,30.4557476 L24.5988731,31.6271226 C24.5988731,31.9961056 24.7698938,32.325262 25.0357959,32.5396236 C25.5535436,32.9566331 25.770248,33.6477443 25.770248,34.3119138 L25.770248,57.3961992 C23.6711442,57.3961992 21.5720403,56.5961501 19.9719422,54.9948806 C18.5194373,53.5447185 17.7346161,51.6822324 17.5987366,49.7834336 C17.4359155,52.0734716 18.2230795,54.4185642 19.9719422,56.1685983 C20.9664395,57.1630956 22.1542137,57.8495213 23.4157844,58.2255326 C24.8472046,58.6530845 25.770248,60.048192 25.770248,61.541695 L25.770248,72.6252444 C38.6881705,72.6252444 49.1977462,62.1156687 49.1977462,49.1977462 C49.1977462,36.2798237 38.6881705,25.770248 25.770248,25.770248" id="Fill-89" fill="#182A37"></path><path d="M13.3466457,36.7741439 C13.1170562,37.002562 12.8171843,37.1161854 12.5173123,37.1161854 C12.2186117,37.1161854 11.9187397,37.002562 11.6891502,36.7741439 L10.0785097,35.1635034 C6.98256583,38.6214021 5.01699874,43.0960543 4.74523976,48.0263713 L4.8600345,48.0263713 C5.35786884,43.5634329 7.23089731,39.5151612 10.0785097,36.3348783 L11.6891502,37.9455188 C11.9187397,38.1739369 12.2186117,38.2875603 12.5173123,38.2875603 C12.8171843,38.2875603 13.1170562,38.1739369 13.3466457,37.9455188 C13.7320281,37.5589651 13.7730262,36.9803059 13.5071241,36.5304979 C13.4579263,36.6148369 13.4180996,36.7015187 13.3466457,36.7741439" id="Fill-90" fill="#182A37"></path><path d="M24.5988731,29.3441129 L24.5988731,28.1727379 C19.6685561,28.4444969 15.1939039,30.410064 11.7360052,33.5060079 L12.3767473,34.1479214 C15.7432788,31.3659059 19.9637426,29.5994726 24.5988731,29.3441129" id="Fill-91" fill="#182A37"></path><path d="M7.02824946,50.3691211 L4.74523976,50.3691211 C4.76632451,50.7650458 4.817865,51.1515995 4.8600345,51.540496 L7.02824946,51.540496 C7.67601978,51.540496 8.19962436,51.0168914 8.19962436,50.3691211 C8.19962436,50.1524167 8.123485,49.9579685 8.020404,49.7834336 C7.81541339,50.1266465 7.45697267,50.3691211 7.02824946,50.3691211" id="Fill-92" fill="#182A37"></path><path d="M13.3466457,63.278844 L11.7360052,64.8894845 C11.9421672,65.0745617 12.1647284,65.2408969 12.3767473,65.4189459 L13.3466457,64.4502189 C13.7320281,64.0636652 13.7730262,63.485006 13.5071241,63.035198 C13.4579263,63.119537 13.4180996,63.2062187 13.3466457,63.278844" id="Fill-93" fill="#182A37"></path><path d="M41.4608149,63.231989 L39.8501744,61.6213485 C39.3933382,61.1645123 38.6518579,61.1645123 38.1938503,61.6213485 C37.7370141,62.0793561 37.7370141,62.8208364 38.1938503,63.278844 L39.8044908,64.8894845 C36.3465921,67.9854284 31.8719399,69.9509955 26.9416229,70.2227544 L26.9416229,67.9397447 C26.9416229,67.2919744 26.4180183,66.7683698 25.770248,66.7683698 C25.1224777,66.7683698 24.5988731,67.2919744 24.5988731,67.9397447 L24.5988731,70.2227544 C19.6685561,69.9509955 15.1939039,67.9854284 11.7360052,64.8894845 L13.3466457,63.278844 C13.8034819,62.8208364 13.8034819,62.0793561 13.3466457,61.6213485 C12.8886381,61.1645123 12.1471578,61.1645123 11.6891502,61.6213485 L10.0785097,63.231989 C6.98256583,59.7740902 5.01699874,55.2994381 4.74523976,50.3691211 L7.02824946,50.3691211 C7.67601978,50.3691211 8.19962436,49.8455165 8.19962436,49.1977462 C8.19962436,48.5499759 7.67601978,48.0263713 7.02824946,48.0263713 L4.74523976,48.0263713 C5.01699874,43.0960543 6.98256583,38.6214021 10.0785097,35.1635034 L11.6891502,36.7741439 C11.9187397,37.002562 12.2186117,37.1161854 12.5173123,37.1161854 C12.8171843,37.1161854 13.1170562,37.002562 13.3466457,36.7741439 C13.8034819,36.3161363 13.8034819,35.574656 13.3466457,35.1166484 L11.7360052,33.5060079 C15.1939039,30.410064 19.6685561,28.4444969 24.5988731,28.1727379 L24.5988731,30.4557476 C24.5988731,31.103518 25.1224777,31.6271226 25.770248,31.6271226 C26.4180183,31.6271226 26.9416229,31.103518 26.9416229,30.4557476 L26.9416229,28.1727379 C31.8719399,28.4444969 36.3465921,30.410064 39.8044908,33.5060079 L38.1938503,35.1166484 C37.7370141,35.574656 37.7370141,36.3161363 38.1938503,36.7741439 C38.4234398,37.002562 38.7233118,37.1161854 39.0220124,37.1161854 C39.3218843,37.1161854 39.6217563,37.002562 39.8501744,36.7741439 L41.4608149,35.1635034 C44.5579302,38.6214021 46.5234973,43.0960543 46.7952563,48.0263713 L44.5122466,48.0263713 C43.8644762,48.0263713 43.3408716,48.5499759 43.3408716,49.1977462 C43.3408716,49.8455165 43.8644762,50.3691211 44.5122466,50.3691211 L46.7952563,50.3691211 C46.5234973,55.2994381 44.5579302,59.7740902 41.4608149,63.231989 Z M25.770248,23.4274982 C11.560299,23.4274982 0,34.9877972 0,49.1977462 C0,63.4076952 11.560299,74.9679942 25.770248,74.9679942 C39.980197,74.9679942 51.540496,63.4076952 51.540496,49.1977462 C51.540496,34.9877972 39.980197,23.4274982 25.770248,23.4274982 Z" id="Fill-94" fill="#546670"></path><polyline id="Fill-95" fill="#DF5142" points="33.2248779 46.71326 27.4687416 47.4149136 28.2969037 41.7021181 35.668366 39.2164606 33.2248779 46.71326"></polyline><path d="M31.5685538,54.9948806 C34.7699214,51.7946844 34.7687501,46.5996366 31.5685538,43.4006118 C28.3660148,40.1969014 23.1744812,40.1969014 19.9719422,43.4006118 L31.5685538,54.9948806" id="Fill-96" fill="#ADBDC4"></path><path d="M19.9719422,43.4006118 C16.7705746,46.600808 16.771746,51.7958557 19.9719422,54.9948806 C23.1744812,58.198591 28.3660148,58.198591 31.5685538,54.9948806 L19.9719422,43.4006118" id="Fill-97" fill="#A0AEB3"></path></g><path d="M86.5293293,51.2510217 L69.6338976,51.2510217 C66.6395444,51.2510217 64.2032232,48.8147005 64.2032232,45.8203473 C64.2032232,43.4903888 65.6928873,41.4429883 67.8767064,40.6978576 C68.3325029,35.754212 72.4697415,31.941957 77.4782052,31.941957 C82.359392,31.941957 86.4630389,35.6213355 87.0502396,40.4144246 C89.8012262,40.6775287 91.9600038,43.0015919 91.9600038,45.8203473 C91.9600038,48.8147005 89.5236825,51.2510217 86.5293293,51.2510217 Z" id="Cloud" fill="#FFFFFF" fill-rule="nonzero" opacity="0.900000036"></path><g id="Azure-Border" stroke="#0078D4" stroke-width="4"><rect x="2" y="2" width="96" height="96" rx="48"></rect></g></g></g></g></svg>

<svg xmlns="http://www.w3.org/2000/svg" viewBox="0 0 100 100"><defs><filter x="-1.9%" y="-1.3%" width="103.8%" height="105.3%" filterUnits="objectBoundingBox" id="a"><feOffset dy="2" in="SourceAlpha" result="shadowOffsetOuter1"/><feColorMatrix values="0 0 0 0 0 0 0 0 0 0 0 0 0 0 0 0 0 0 0.101760643 0" in="shadowOffsetOuter1" result="shadowMatrixOuter1"/><feMerge><feMergeNode in="shadowMatrixOuter1"/><feMergeNode in="SourceGraphic"/></feMerge></filter></defs><g fill="none" fill-rule="evenodd"><rect fill="#F2C811" x="2" y="2" width="96" height="96" rx="48"/><path d="M22.844 58.415h-8.903c-3 0-5.441-2.441-5.441-5.441s2.44-5.442 5.44-5.442c.276 0 .553.025.85.078a8.366 8.366 0 0 1 8.054-6.014c4.637 0 8.41 3.773 8.41 8.41 0 4.636-3.773 8.409-8.41 8.409z" fill="#FFF" fill-rule="nonzero"/><g filter="url(#a)" transform="translate(24.23 11.516)"><path d="M25.77 0C15.436 0 7.028 8.408 7.028 18.742v14.056c0 1.294 1.575 2.343 3.514 2.343 1.94 0 3.514-1.05 3.514-2.343V18.742c0-6.459 5.255-11.714 11.714-11.714 6.46 0 11.714 5.255 11.714 11.714v14.056c0 1.294 1.574 2.343 3.514 2.343 1.94 0 3.514-1.05 3.514-2.343V18.742C44.512 8.408 36.104 0 25.77 0" fill="#F3F3F3"/><path d="M25.77 0c-.396 0-.782.034-1.171.06 9.787.609 17.57 8.744 17.57 18.682v5.802c0 1.361-1.482 2.209-2.647 1.505-.66-.4-1.34-.77-2.038-1.11v7.86c0 1.293 1.574 2.342 3.514 2.342 1.94 0 3.514-1.05 3.514-2.343V18.742C44.512 8.408 36.104 0 25.77 0M21.353 7.218c-5.659 1.037-9.64 6.188-9.64 11.942v5.2c0 1.122-.526 2.19-1.444 2.833-1.15.809-2.235 1.701-3.24 2.677v2.928c0 1.294 1.574 2.343 3.513 2.343 1.94 0 3.514-1.05 3.514-2.343V18.742c0-6.064 4.63-11.064 10.543-11.654a11.437 11.437 0 0 0-3.246.13" fill="#C5CCCD"/><path d="M25.77 25.77c-12.918 0-23.427 10.51-23.427 23.428 0 12.918 10.51 23.427 23.427 23.427 12.918 0 23.428-10.51 23.428-23.427 0-12.918-10.51-23.428-23.428-23.428" fill="#30404D"/><path d="M25.77 25.77v5.857a1.17 1.17 0 0 1-1.171-1.171v1.171c0 .37.17.698.437.913.518.417.734 1.108.734 1.772v23.084c-2.099 0-4.198-.8-5.798-2.401a8.154 8.154 0 0 1-2.373-5.212 8.18 8.18 0 0 0 2.373 6.386 8.153 8.153 0 0 0 3.444 2.057c1.431.427 2.354 1.822 2.354 3.316v11.083c12.918 0 23.428-10.51 23.428-23.427 0-12.918-10.51-23.428-23.428-23.428M13.347 36.774a1.172 1.172 0 0 1-1.658 0l-1.61-1.61a20.962 20.962 0 0 0-5.334 12.862h.115a20.973 20.973 0 0 1 5.219-11.691l1.61 1.61a1.17 1.17 0 0 0 1.658 0c.385-.386.426-.965.16-1.415-.05.085-.089.172-.16.244" fill="#182A37"/><path d="M24.599 29.344v-1.171a20.962 20.962 0 0 0-12.863 5.333l.64.642c3.367-2.782 7.588-4.549 12.223-4.804M7.028 50.37H4.745c.021.395.073.782.115 1.17h2.168A1.17 1.17 0 0 0 8.2 50.37c0-.218-.077-.412-.18-.587-.205.344-.563.586-.992.586M13.347 63.279l-1.611 1.61c.206.186.429.352.64.53l.97-.969c.386-.386.427-.965.161-1.415-.05.085-.089.171-.16.244" fill="#182A37"/><path d="M41.46 63.232l-1.61-1.61a1.172 1.172 0 0 0-1.656 1.657l1.61 1.61a20.962 20.962 0 0 1-12.862 5.334V67.94a1.17 1.17 0 1 0-2.343 0v2.283a20.962 20.962 0 0 1-12.863-5.334l1.61-1.61c.457-.458.457-1.2 0-1.658a1.174 1.174 0 0 0-1.657 0l-1.61 1.611a20.962 20.962 0 0 1-5.334-12.863h2.283a1.17 1.17 0 1 0 0-2.343H4.745a20.962 20.962 0 0 1 5.334-12.862l1.61 1.61a1.17 1.17 0 0 0 1.658 0c.456-.458.456-1.2 0-1.657l-1.611-1.611a20.962 20.962 0 0 1 12.863-5.333v2.283a1.17 1.17 0 1 0 2.343 0v-2.283a20.962 20.962 0 0 1 12.862 5.333l-1.61 1.61a1.17 1.17 0 1 0 1.656 1.657l1.61-1.61a20.956 20.956 0 0 1 5.335 12.863h-2.283a1.17 1.17 0 1 0 0 2.343h2.283a20.956 20.956 0 0 1-5.334 12.863zM25.77 23.427C11.56 23.427 0 34.987 0 49.197c0 14.21 11.56 25.771 25.77 25.771 14.21 0 25.77-11.56 25.77-25.77 0-14.21-11.56-25.77-25.77-25.77z" fill="#546670"/><path fill="#DF5142" d="M33.225 46.713l-5.756.702.828-5.713 7.371-2.486-2.443 7.497"/><path d="M31.569 54.995A8.2 8.2 0 0 0 19.972 43.4l11.597 11.594" fill="#ADBDC4"/><path d="M19.972 43.4a8.2 8.2 0 0 0 11.597 11.595L19.972 43.4" fill="#A0AEB3"/></g><path d="M86.53 51.251H69.633a5.437 5.437 0 0 1-5.43-5.43c0-2.33 1.489-4.378 3.673-5.123a9.635 9.635 0 0 1 9.601-8.756c4.881 0 8.985 3.68 9.572 8.472a5.438 5.438 0 0 1 4.91 5.406 5.437 5.437 0 0 1-5.43 5.431z" fill="#FFF" fill-rule="nonzero" opacity=".9"/><rect x="2" y="2" width="96" height="96" rx="48" stroke="#0078D4" stroke-width="4"/></g></svg>
